public/img/lck.svg

<?xml version="1.0" encoding="utf-8"?>
<!-- Generator: Adobe Illustrator 24.0.2, SVG Export Plug-In . SVG Version: 6.00 Build 0)  -->
<svg version="1.1" id="Layer_1" xmlns="http://www.w3.org/2000/svg" xmlns:xlink="http://www.w3.org/1999/xlink" x="0px" y="0px"
	 viewBox="0 0 100 100" style="enable-background:new 0 0 100 100;" xml:space="preserve">
<style type="text/css">
	.st0{fill:#0ACAD5;}
</style>
<g id="g846">
	<path id="path836" class="st0" d="M60.1,69.6l-0.3,0.2L50,62.6l-4.7-3.5L0,25.6l0.3-0.2l42.1,10L50,50l4.7,9.1L60.1,69.6z"/>
	<path id="path838" class="st0" d="M100,25.6L54.7,59.1L50,62.6l-9.8,7.3l-0.3-0.2l5.4-10.5L50,50l7.6-14.7l42.1-10L100,25.6z"/>
</g>
</svg>

<svg width="100" height="100" viewBox="0 0 100 100" fill="none" xmlns="http://www.w3.org/2000/svg">
<path d="M60.1 69.6L59.8 69.8L50 62.6L45.3 59.1L0 25.6L0.3 25.4L42.4 35.4L50 50L54.7 59.1L60.1 69.6Z" fill="#6454ED"/>
<path d="M100 25.6L54.7 59.1L50 62.6L40.2 69.9L39.9 69.7L45.3 59.2L50 50L57.6 35.3L99.7 25.3L100 25.6Z" fill="#6454ED"/>
</svg>
